boxicons/svg/regular/bx-calculator.svg

<svg xmlns="http://www.w3.org/2000/svg" width="24" height="24" viewBox="0 0 24 24"><path d="M19 2H5c-1.103 0-2 .897-2 2v16c0 1.103.897 2 2 2h14c1.103 0 2-.897 2-2V4c0-1.103-.897-2-2-2zM5 20V4h14l.001 16H5z"/><path d="M7 12h2v2H7zm0 4h2v2H7zm4-4h2v2h-2zM7 6h10v4H7zm4 10h2v2h-2zm4-4h2v6h-2z"/></svg>

<svg xmlns="http://www.w3.org/2000/svg" width="24" height="24" viewBox="0 0 24 24"><path d="M19,2H5C3.897,2,3,2.897,3,4v16c0,1.103,0.897,2,2,2h14c1.103,0,2-0.897,2-2V4C21,2.897,20.103,2,19,2z M5,20V4h14 l0.001,16H5z"/><path d="M7 12H9V14H7zM7 16H9V18H7zM11 12H13V14H11zM7 6H17V10H7zM11 16H13V18H11zM15 12H17V18H15z"/></svg>
